X:2007 
T:Hie my graih shaghym 
C:Mr Corteen, Surveyor of Roads
O:Isle of Man
S:Traditional
Z:Clague collection
B:Kiaull Vannin #7 
M:2/4
L:1/4 
Q:60 
K:D 
f>e|d d/B/|c2|F ^A|B B|B2-|B B/c/|d d|d>f| 
fa|b b|f2|f>e|d d/B/|c2|F ^A|B B|B2|| 
